!!!!SEGMENT: pl-kk--i-540--001-006-pc0_rychling-wincenty-waclaw--kompleta-no-v-chor-nunc-dimittis.krn
!!!cenid: 18xx:4466a
!!!COM: Rychling, Wincenty Wacław
!!!COM-rismID: pe50046026
!!!CDT: 1841/01/09-1896/01/11
!!!CNT: Polish
!!!GTL: Kompleta
!!!OTL: No. V. Chór. Nunc dimittis
!!!OMV: 006
!!!PDT:
!!!AGN: Sacred
!!!YEC: Copyright 2022 Narodowy Instytut Fryderyka Chopina (https://polishscores.org)
!!!YEM: License CC-BY-4.0 (https://creativecommons.org/licenses/by/4.0)
!!!SMS-siglum: PL-Kk
!!!SMS-shelfmark: I.540
!!!SMS-variant:
!!!SMS-altvar:
!!!SMS-shelfwork: 001-006 G
!!!NIFC-rismSourceID: 1001210701
!!!NIFC-rismChildID: 1001210718
!!!NIFC-islandoraID: pl-kk:16958
!!!URL-pdf-islandora: https://repozytorium.nifc.pl/islandora/object/pl-kk%3A16958/datastream/PDF/view
!!!URL-scan: https://polish.musicsources.pl/pl/lokalizacje/galeria/rekopisy/7167/4 @EN{Scan on Polish Music Sources Website} @PL{Skany w portalu Dziedzictwo Muzyki Polskiej w otwartym dostępie}
!!!IIIF:
!!!ONB-nifc: UWAGA: źródło tylko w wersji partyturowej, skan 4. Proszę zrobić drugą wersję w humdrumie (alternatywne dwa ostatnie takty).
!!!OMD:
!!!AIN: 2 male
!!!key: c
**kern	**text	**kern	**text
*part2	*part2	*part1	*part1
*staff2	*staff2	*staff1	*staff1
*I"[Voice]	*	*I"[Voice]	*
*Imale	*	*Imale	*
*ICvox	*	*ICvox	*
*clefF4	*	*clefG2	*
*	*	*ITrd8c12	*
*k[b-e-a-]	*	*k[b-e-a-]	*
*c:	*	*c:	*
*M2/2	*	*M2/2	*
*met(c|)	*	*met(c|)	*
=1	=1	=1	=1
*^	*	*^	*
*	*2\right	*	*	*2\right	*
!!LO:TX:t=P:problem=all/left
!!LO:TX:t=P:problem=all\right
2.E-/	2.C\	.	2.c/	2.G\	Nunc
4E-/	4C\	.	4c/	4G\	di-
=2	=2	=2	=2	=2	=2
4E-/	4AA-\	.	4c/	4A-\	-mit-
4E-/	4AA-\	.	4c/	4A-\	-tis
4F/	4F\	.	4c/	4A-\	ser-
4F/	4F\	.	4c/	4A-\	-vum
=3	=3	=3	=3	=3	=3
2G/	2E-\	.	2c/	2G\	tu-
4F/	4D\	.	4B/	4G\	.
4E-/	4C\	.	4c/	4G\	-um
=4	=4	=4	=4	=4	=4
4.D/	4.BBn\	.	4.d/	4.G\	Do-
8E-/	8C\	.	8c/	8G\	-mi-
2E-/	2C;\	.	2c;/	2G\	-ne
!!LO:PB:g=original
=5	=5	=5	=5	=5	=5
2E-/	2AA-\	.	2c/	2A-\	se-
4E-/	4AA-\	.	4c/	4A-\	-cum
4E-/	4AA-\	.	4c/	4A-\	dum
=6	=6	=6	=6	=6	=6
2E-/	2AA-\	.	2c/	2A-\	ver-
2E-/	2E-\	.	2B-X/	2G\	-bum
=7	=7	=7	=7	=7	=7
4E-/	2AA-\	.	4c/	4A-\	tu-
4E-/	.	.	4c/	4A-\	-um
2E-/	2GG\	.	2e-/	2B-\	in
=8	=8	=8	=8	=8	=8
1B-	1D	.	1B-	1F	pa-
=9	=9	=9	=9	=9	=9
1Bn	1GG	.	1G	1D	-ce
*v	*v	*	*	*	*
*	*	*v	*v	*
==	==	==	==
*-	*-	*-	*-
!!!system-decoration: {(s1,s2)}
!!!ENC: Andrzej Gręziak
!!!END: 2023-10-27
!!!EED: Marta Chmielewska
!!!EEV: 2024-04-18
